src/assets/vk.svg

<svg width="32" height="32" viewBox="0 0 32 32" fill="none" xmlns="http://www.w3.org/2000/svg">
<rect width="32" height="32" rx="8" fill="#424245"/>
<path fill-rule="evenodd" clip-rule="evenodd" d="M23.6 12.6939C23.726 12.3025 23.6 12.0178 23.0418 12.0178H21.1874C20.7193 12.0178 20.5032 12.2669 20.3772 12.5338C20.3772 12.5338 19.4229 14.8114 18.0906 16.2882C17.6585 16.7153 17.4605 16.8576 17.2265 16.8576C17.1004 16.8576 16.9384 16.7153 16.9384 16.3239V12.6761C16.9384 12.2135 16.7943 12 16.3982 12H13.4815C13.1935 12 13.0135 12.2135 13.0135 12.4271C13.0135 12.8719 13.6796 12.9787 13.7516 14.2242V16.9288C13.7516 17.516 13.6436 17.6228 13.4095 17.6228C12.7794 17.6228 11.249 15.3274 10.3308 12.7118C10.1507 12.1957 9.97072 12 9.50262 12H7.63014C7.09003 12 7 12.2491 7 12.516C7 12.9965 7.63014 15.4164 9.93468 18.6192C11.4651 20.8078 13.6436 21.9822 15.6061 21.9822C16.7943 21.9822 16.9384 21.7153 16.9384 21.2705V19.6157C16.9384 19.0818 17.0464 18.9929 17.4245 18.9929C17.6945 18.9929 18.1807 19.1352 19.2789 20.185C20.5392 21.4306 20.7552 22 21.4574 22H23.3119C23.852 22 24.1041 21.7331 23.96 21.2171C23.798 20.7011 23.1859 19.9538 22.3937 19.064C21.9615 18.5659 21.3134 18.0143 21.1153 17.7473C20.8453 17.3915 20.9173 17.2491 21.1153 16.9288C21.0974 16.9288 23.3659 13.7616 23.6 12.6939Z" fill="#CDCDCD"/>
</svg>

<svg fill="none" xmlns="http://www.w3.org/2000/svg" viewBox="0 0 32 32"><rect width="32" height="32" rx="8" fill="#424245"/><path fill-rule="evenodd" clip-rule="evenodd" d="M23.6 12.694c.126-.392 0-.676-.558-.676h-1.855c-.468 0-.684.249-.81.516 0 0-.954 2.277-2.286 3.754-.433.427-.63.57-.864.57-.127 0-.289-.143-.289-.534v-3.648c0-.463-.144-.676-.54-.676h-2.916c-.288 0-.468.213-.468.427 0 .445.666.552.738 1.797v2.705c0 .587-.108.694-.343.694-.63 0-2.16-2.296-3.078-4.911-.18-.516-.36-.712-.828-.712H7.63c-.54 0-.63.25-.63.516 0 .48.63 2.9 2.935 6.103 1.53 2.189 3.709 3.363 5.671 3.363 1.188 0 1.332-.267 1.332-.712v-1.654c0-.534.108-.623.486-.623.27 0 .757.142 1.855 1.192C20.539 21.431 20.755 22 21.457 22h1.855c.54 0 .792-.267.648-.783-.162-.516-.774-1.263-1.566-2.153-.432-.498-1.08-1.05-1.279-1.317-.27-.355-.198-.498 0-.818-.018 0 2.25-3.167 2.485-4.235Z" fill="#CDCDCD"/></svg>
